etl/source/minify_svg/TV.svg

<?xml version="1.0" encoding="UTF-8"?>
<svg width="1200" height="600" xmlns="http://www.w3.org/2000/svg" xmlns:xlink="http://www.w3.org/1999/xlink">
<defs>
<clipPath id="c">
<path d="M0,0V150H700V300H600zM0,300V400H300V0H600z"/>
</clipPath>
<path id="a" d="m0-50.081 29.437 90.597-77.066-55.992h95.259l-77.066 55.993z" fill="#ffce00"/>
<use id="b" transform="rotate(36)" xlink:href="#a"/>
</defs>
<rect width="1200" height="600" fill="#00247d"/>
<path d="M0,0 600,300M0,300 600,0" stroke="#fff" stroke-width="60"/>
<path d="M0,0 600,300M0,300 600,0" clip-path="url(#c)" stroke="#cf142b" stroke-width="40"/>
<path d="M300,0V400M0,150H700" stroke="#fff" stroke-width="100"/>
<path d="M300,0V400M0,150H700" stroke="#cf142b" stroke-width="60"/>
<path d="M0,300H600V0H1200V600H0z" fill="#5b97b1"/>
<use x="645.3396" y="540.9936" xlink:href="#a"/>
<use x="788.0256" y="504.516" xlink:href="#b"/>
<use x="788.0256" y="382.5324" xlink:href="#b"/>
<use x="914.0304" y="473.6844" xlink:href="#b"/>
<use x="914.0304" y="208.2708" xlink:href="#b"/>
<use x="996.4416" y="390.0456" xlink:href="#a"/>
<use x="1019.928" y="172.0776" xlink:href="#b"/>
<use x="1102.836" y="321.5544" xlink:href="#a"/>
<use x="1102.836" y="87.486" xlink:href="#a"/>
</svg>

<svg xmlns="http://www.w3.org/2000/svg" xmlns:xlink="http://www.w3.org/1999/xlink" width="1200" height="600"><defs><clipPath id="b"><path d="M0 0v150h700v150H600zm0 300v100h300V0h300z"/></clipPath><path id="a" fill="#ffce00" d="m0-50.08 29.437 90.596-77.067-55.992h95.26l-77.067 55.993z"/><use id="c" xlink:href="#a" transform="rotate(36)"/></defs><path fill="#00247d" d="M0 0h1200v600H0z"/><path d="m0 0 600 300M0 300 600 0" stroke="#fff" stroke-width="60"/><path d="m0 0 600 300M0 300 600 0" stroke="#cf142b" stroke-width="40" clip-path="url(#b)"/><path d="M300 0v400M0 150h700" stroke="#fff" stroke-width="100"/><path d="M300 0v400M0 150h700" stroke="#cf142b" stroke-width="60"/><path d="M0 300h600V0h600v600H0z" fill="#5b97b1"/><use xlink:href="#a" x="645.34" y="540.994"/><use xlink:href="#c" x="788.026" y="504.516"/><use xlink:href="#c" x="788.026" y="382.532"/><use xlink:href="#c" x="914.03" y="473.684"/><use xlink:href="#c" x="914.03" y="208.271"/><use xlink:href="#a" x="996.442" y="390.046"/><use xlink:href="#c" x="1019.928" y="172.078"/><use xlink:href="#a" x="1102.836" y="321.554"/><use xlink:href="#a" x="1102.836" y="87.486"/></svg>
